X: 39
M:6/8
L:1/8
K:G
EGE G2 A|BAG B3|EGE G2 A|BGE GED|
EGE G2 A|BAG B2 d|ege dBG|A3 A3:|
|:AGE AGE|A2 B c3|EGE G2 A|BGE GED|
|:gfe gdB|A2 B c3|EGE G2 A|BGE GED|
gfe gdB|A2 B c2 d|ege dBG|A3 A3:||

